X:27
T:Gan Ainm
R:Jig
S:Johnny McGreevy, Chicago (fiddle)
D:From RTE 'The Pure Drop'
N:As played
M:6/8
Z:Bernie Stocks
K:G
|: {A}GED ~G2A | BAG ABd | edd gdd | edB {e}dBA | {A}GED ~G2A | BAG ABd | 
edd gdB |1 AGF ~G3 :|2 AGF GBd || ~g3 efg | {g}fed edB | ABd egg | fdd [dD]ef |
~g3 efg | {g}fed edB | gdB dBA | BGG GBd | ~g3 efg | {g}fed edB | 
ABd egg | fdd [dD]ef | ~g3 ~a3 | bag fgf | edc BcA | BGF G3 ||
<end>
<start>
